X:1
T:Kimmage
M:3/4
L:1/4
K:C
 E/2F/2| G E c| B E c| G E2-| E2 E| F D2-| D2 A| G E2-| E2 E/2F/2|\
 G/2G/2 E c| G E c| G E2-| E2 E| F E F| A/2 G3/2 B,| C3| A3| G E G|\
 F/2 D3/2 B,| C3-| C2||
